!!!COM: Palestrina, Giovanni Perluigi da
!!!OPR: Missa Salve regina
!!!OMD: Credo
!!!OTL: Crucifixus
**kern	**kern	**kern	**kern
*Itenor	*Icalto	*Icalto	*Icant
!Tenor	!Altus 2	!Altus 1	!Cantus
*clefGv2	*clefG2	*clefG2	*clefG2
*k[b-]	*k[b-]	*k[b-]	*k[b-]
*G:dor	*G:dor	*G:dor	*G:dor
*M4/2	*M4/2	*M4/2	*M4/2
=77	=77	=77	=77
0r	0r	1.g	0r
.	.	2d	.
=78	=78	=78	=78
0r	0r	1f	0r
.	.	1g	.
=79	=79	=79	=79
0r	0r	2.b-	1.dd
.	.	4a	.
.	.	2g	.
.	.	2f	2a
=80	=80	=80	=80
0r	0r	1e	1cc
.	.	2d	1dd
.	.	2g	.
=81	=81	=81	=81
0r	0r	2a	2.ff
.	.	1b-	.
.	.	.	4ee
.	.	.	2dd
.	.	[2a	2cc
=82	=82	=82	=82
1r	0r	2a]	1b-
.	.	1g	.
[1d	.	.	2a
.	.	4f	4dd
.	.	4e	4cc
=83	=83	=83	=83
2d]	0r	4f	4dd
.	.	4g	4ee
2A	.	2a	1ff
1c	.	1g	.
.	.	.	2ee
=84	=84	=84	=84
1d	1r	2f	2.ff
.	.	1a	.
.	.	.	8ee
.	.	.	8dd
2.f	[1a	.	2cc
.	.	2d	[2ff
4e	.	.	.
=85	=85	=85	=85
2d	2a]	2f	4ff]
.	.	.	4dd
2c	2e	2.g	2.ee
1B-	1g	.	.
.	.	4f	4dd
.	.	4e	[2dd
.	.	4d	.
=86	=86	=86	=86
1A	1a	1e	2dd]
.	.	.	2cc#
[1G	2.b-	2.g	1dd
.	4a	4f	.
=87	=87	=87	=87
1G]	2g	2e	0r
.	2f	1d	.
1A	1e	.	.
.	.	2c#	.
=88	=88	=88	=88
1B-	2d	1d	2r
.	2f	.	2dd
1G	2.b-	1r	2.dd
.	4a	.	4cc
=89	=89	=89	=89
0r	2g	2r	2b-
.	2f#	2d	2a
.	2.g	2.b-	4g
.	.	.	4a
.	.	.	4b-
.	4a	4a	4cc
=90	=90	=90	=90
0r	4b-	2g	2.dd
.	4g	.	.
.	2.a	2f	.
.	.	.	4cc
.	.	1g	2b-
.	4g	.	.
.	[2g	.	4a
.	.	.	4g
=91	=91	=91	=91
1r	2g]	1d	1a
.	2f#	.	.
[1c	1g	[1e	1g
=92	=92	=92	=92
1c]	1g	1e]	1cc
1A	1a	2e	1cc
.	.	[2f	.
=93	=93	=93	=93
1c	1g	2f]	2r
.	.	1e	1cc
1d	2r	.	.
.	[2f	[2d	[2b-
=94	=94	=94	=94
1A	2f]	2d]	2b-]
.	1e	2c#	1a
1B-	.	1d	.
.	[2d	.	2g
=95	=95	=95	=95
1A	2d]	1e	1.a
.	2c#	.	.
1d	2d	1d	.
.	2f#	.	2a
=96	=96	=96	=96
0r	2g	0r	2b-
.	2a	.	2cc
.	2.b-	.	2.dd
.	4a	.	4cc
=97	=97	=97	=97
0r	2g	0r	2b-
.	2f	.	2a
.	[1g	.	4g
.	.	.	4a
.	.	.	4b-
.	.	.	4cc
=98	=98	=98	=98
0r	2g]	1r	4dd
.	.	.	4ee
.	4f	.	2.ff
.	4e	.	.
.	4d	1f	.
.	4c	.	4ee
.	2d	.	[2dd
=99	=99	=99	=99
1r	2e	2g	2dd]
.	2f	2a	2cc
2r	1B-	2.b-	1dd
2B-	.	.	.
.	.	4a	.
=100	=100	=100	=100
2c	0r	2g	1r
2d	.	2f	.
2.e-	.	[1g	1b-
4d	.	.	.
=101	=101	=101	=101
2c	0r	1g]	2cc
2B-	.	.	2dd
2c	.	2.g	2.ee-
[2e-	.	.	.
.	.	4f	4dd
=102	=102	=102	=102
2e-]	2r	4g	2cc
.	.	4a	.
2d	2f	1b-	2b-
1c	2g	.	1cc
.	2a	2a	.
=103	=103	=103	=103
1B-	2.b-	2g	0dd
.	.	2f	.
.	4a	.	.
1r	2g	2b-	.
.	2f#	2a	.
=104	=104	=104	=104
1r	2g	2b-	0dd
.	1b-	1g	.
[1d	.	.	.
.	2a	2f#	.
=105	=105	=105	=105
1d]	2r	2r	1dd
.	2a	2f#	.
1G	1b-	1g	1dd
=106	=106	=106	=106
2A	2a	2e	2cc
2B-	2f	2d	2b-
[1F	4cc	4f	4a
.	4b-	4g	4g
.	4a	4a	4f
.	4g	4b-	4g
=107	=107	=107	=107
1F]	2.f	4cc	4a
.	.	4b-	4b-
.	.	2a	1cc
.	4e	.	.
1G	1d	2g	.
.	.	[2g	2b
=108	=108	=108	=108
2r	2c	2g]	1cc
1c	1e	2g	.
.	.	1cc	1r
2c	2e	.	.
=109	=109	=109	=109
1f	1a	1cc	2r
.	.	.	1cc
2e	2g	1r	.
2f	2a	.	2cc
=110	=110	=110	=110
4d	4f	2r	1ff
4e	4g	.	.
4f	4a	1a	.
4g	4b-	.	.
2a	2cc	.	2ee
2d	2f	2a	2ff
=111	=111	=111	=111
2.g	2r	1b-	4dd
.	.	.	4cc
.	2b-	.	4dd
4g	.	.	4ee
2f	2cc	2a	1ff
4d	[2b-	2b-	.
4d	.	.	.
=112	=112	=112	=112
1e-	4b-]	4g	1.gg
.	4a	4a	.
.	4g	4b-	.
.	4a	4cc	.
1d	2b-	2dd	.
.	2a	2dd	2ff#
=113	=113	=113	=113
2r	2r	1r	2r
2G	2b-	.	2gg
2d	2.a	2r	2.ff
2d	.	2d	.
.	4g	.	4ee
=114	=114	=114	=114
2d	2f	1a	2dd
2A	2e	.	2cc
2B-	2d	1r	2dd
4c	4g	.	[2ee-
4d	4f	.	.
=115	=115	=115	=115
4e-	4g	0r	4ee-]
4f	4a	.	4dd
2g	1b-	.	4dd
.	.	.	8cc
.	.	.	8b-
1f	.	.	1cc
.	2a	.	.
=116	=116	=116	=116
2.B-	2b-	2r	2dd
.	2g	2b-	2dd
4c	.	.	.
1d	2.f	2.a	2dd
.	.	.	2dd
.	4g	4g	.
=117	=117	=117	=117
2r	2a	2f	2dd
2g	2g	2e	2cc#
2.f	2a	2d	1dd
.	[2a	4d	.
4e	.	4e	.
=118	=118	=118	=118
2d	4a]	4f	2r
.	4f	4d	.
2c	4g	2e	2gg
.	4a	.	.
2.d	2b-	2d	2.ff
.	2a	2f	.
4c	.	.	4ee
=119	=119	=119	=119
4d	2r	2b-	2dd
4e	.	.	.
2f	1f	2a	2cc
2.B-	.	2b-	[1dd
.	2b-	2g	.
4c	.	.	.
=120	=120	=120	=120
2d	2a	2f#	1dd]
2G	2b-	2.g	.
1c	2g	.	1ee-
.	.	4c	.
.	[2a	[2cc	.
=121	=121	=121	=121
1d	2a]	2cc]	[0dd
.	1g	2b-	.
1d	.	1a	.
.	2f	.	.
=122	=122	=122	=122
1G	2.b-	2.g	1dd_
.	4a	4a	.
1G	1g	1b-	1dd_
=123	=123	=123	=123
0d	0f#	0a	0dd]
*-	*-	*-	*-
!!!CDT: 1525/^1526/-1594/2/2
!!!OCY: Italia
!!!AGN: Mass (Paraphrase)
!!!AST: renaissance, vocal
!!!ASW: Antiphon
!!!PWK: Masses, Book 11
!!!RNB: Cadence finals: D
!!!YOR: Le Opere Complete, v. 28, p. 185
!!!YOO: Rome, Italy: Fratelli Scalera
!!!END: 1992//
!!!EED: John Miller
!!!YEC: Copyright 2000, John Miller
!!!YEN: United States of America
!!!YEM: Rights to all derivative electronic formats reserved.
!!!YEM: Refer to licensing agreement for further details.
!!!YEM: This file must be accompanied by the licensing agreement.
!!!YEM: A copy of the licensing agreement may be found at http://www.music-cog.ohio-state.edu/HumdrumDatabases/Palestrina/license.txt
!!!EMD: converted to Humdrum by Bret Aarden
